Catalina-light/apps/scalable/epoptes.svg

<?xml version="1.0" encoding="UTF-8" standalone="no"?>
<!-- Created with Inkscape (http://www.inkscape.org/) -->

<svg
   xmlns:dc="http://purl.org/dc/elements/1.1/"
   xmlns:cc="http://creativecommons.org/ns#"
   xmlns:rdf="http://www.w3.org/1999/02/22-rdf-syntax-ns#"
   xmlns:svg="http://www.w3.org/2000/svg"
   xmlns="http://www.w3.org/2000/svg"
   xmlns:xlink="http://www.w3.org/1999/xlink"
   xmlns:sodipodi="http://sodipodi.sourceforge.net/DTD/sodipodi-0.dtd"
   xmlns:inkscape="http://www.inkscape.org/namespaces/inkscape"
   width="128"
   height="128"
   viewBox="0 0 33.866666 33.866668"
   version="1.1"
   id="svg956"
   inkscape:version="0.91 r13725"
   sodipodi:docname="epoptes.svg">
  <defs
     id="defs950">
    <linearGradient
       inkscape:collect="always"
       id="linearGradient1606-5">
      <stop
         style="stop-color:#f3f9f9;stop-opacity:1"
         offset="0"
         id="stop1602" />
      <stop
         style="stop-color:#d5dada;stop-opacity:1"
         offset="1"
         id="stop1604" />
    </linearGradient>
    <linearGradient
       gradientTransform="matrix(0.26458333,0,0,0.26458333,-0.75004731,260.85009)"
       inkscape:collect="always"
       xlink:href="#linearGradient944"
       id="linearGradient948"
       gradientUnits="userSpaceOnUse"
       x1="122.34071"
       y1="117.04197"
       x2="84.091423"
       y2="71.020111" />
    <linearGradient
       inkscape:collect="always"
       id="linearGradient944">
      <stop
         style="stop-color:#d5dada;stop-opacity:1"
         offset="0"
         id="stop940" />
      <stop
         style="stop-color:#f1f1f1;stop-opacity:1"
         offset="1"
         id="stop942" />
    </linearGradient>
    <filter
       style="color-interpolation-filters:sRGB"
       id="c"
       height="1.1655999"
       width="1.1655999"
       x="-0.082800001"
       y="-0.082800001">
      <feGaussianBlur
         stdDeviation="2.1101835"
         id="feGaussianBlur10" />
    </filter>
    <linearGradient
       gradientTransform="matrix(0.25320785,0,0,0.25320785,-0.0941833,263.43808)"
       inkscape:collect="always"
       xlink:href="#linearGradient870"
       id="linearGradient872"
       x1="36.951637"
       y1="28.276243"
       x2="67.632683"
       y2="108.04747"
       gradientUnits="userSpaceOnUse" />
    <linearGradient
       inkscape:collect="always"
       id="linearGradient870">
      <stop
         style="stop-color:#23db96;stop-opacity:1"
         offset="0"
         id="stop866" />
      <stop
         style="stop-color:#178f4c;stop-opacity:1"
         offset="1"
         id="stop868" />
    </linearGradient>
    <filter
       style="color-interpolation-filters:sRGB"
       id="a"
       height="1.031026"
       width="1.031376"
       x="-0.015688"
       y="-0.015513">
      <feGaussianBlur
         stdDeviation=".7986332"
         id="feGaussianBlur2" />
    </filter>
    <linearGradient
       inkscape:collect="always"
       xlink:href="#linearGradient1606-5"
       id="linearGradient1615"
       gradientUnits="userSpaceOnUse"
       x1="21.771429"
       y1="281.84537"
       x2="30.878431"
       y2="291.66385"
       gradientTransform="matrix(0.95700606,0,0,0.95700606,0.62361651,13.80297)" />
    <clipPath
       id="clipPath16"
       clipPathUnits="userSpaceOnUse">
      <path
         inkscape:connector-curvature="0"
         id="path18"
         d="m 0,200.303 320,0 L 320,0 0,0 0,200.303 Z" />
    </clipPath>
  </defs>
  <sodipodi:namedview
     id="base"
     pagecolor="#ffffff"
     bordercolor="#666666"
     borderopacity="1.0"
     inkscape:pageopacity="0.0"
     inkscape:pageshadow="2"
     inkscape:zoom="1.3147767"
     inkscape:cx="31.441778"
     inkscape:cy="70.718706"
     inkscape:document-units="mm"
     inkscape:current-layer="layer1"
     showgrid="true"
     units="px"
     inkscape:window-width="1920"
     inkscape:window-height="1025"
     inkscape:window-x="0"
     inkscape:window-y="26"
     inkscape:window-maximized="1">
    <inkscape:grid
       type="xygrid"
       id="grid1636" />
  </sodipodi:namedview>
  <metadata
     id="metadata953">
    <rdf:RDF>
      <cc:Work
         rdf:about="">
        <dc:format>image/svg+xml</dc:format>
        <dc:type
           rdf:resource="http://purl.org/dc/dcmitype/StillImage" />
        <dc:title></dc:title>
      </cc:Work>
    </rdf:RDF>
  </metadata>
  <g
     inkscape:label="Capa 1"
     inkscape:groupmode="layer"
     id="layer1"
     transform="translate(0,-263.13332)">
    <rect
       style="fill:#5d5d5d;filter:url(#a)"
       id="rect13"
       y="-8.1696901"
       x="159.55064"
       width="107.46031"
       transform="matrix(0.24270815,-0.03939202,0.03939202,0.24270815,-37.675115,277.00978)"
       rx="4.8269792"
       height="109.12843" />
    <rect
       style="fill:#ffffff;stroke-width:0.24588409"
       id="rect15"
       y="265.38727"
       x="-42.336063"
       width="26.422779"
       transform="rotate(-9.2188336)"
       rx="1.1868773"
       height="26.832945" />
    <path
       style="fill:url(#linearGradient872);fill-opacity:1;stroke-width:0.24588409"
       inkscape:connector-curvature="0"
       id="path17"
       d="m 2.3221944,270.32599 23.1665436,-4.08145 4.023968,22.99409 -23.1090621,4.25391 z" />
    <path
       inkscape:connector-curvature="0"
       d=""
       style="opacity:1;fill:url(#linearGradient948);fill-opacity:1;stroke:none;stroke-width:0.57240593;stroke-linecap:round;stroke-linejoin:round;stroke-miterlimit:4;stroke-dasharray:none;stroke-dashoffset:0;stroke-opacity:0.03831416;paint-order:fill markers stroke"
       id="path864"
       r="28.431282"
       cy="97.610519"
       cx="103.31834" />
    <path
       style="opacity:1;fill:#ffffff;fill-opacity:1;stroke:none;stroke-width:0.67322832;stroke-linecap:round;stroke-linejoin:round;stroke-miterlimit:4;stroke-dasharray:none;stroke-dashoffset:0;stroke-opacity:0.03041825;paint-order:fill markers stroke"
       d="m 16.003401,272.30742 a 7.6500973,7.6108306 0 0 0 -2.823289,0.53885 c 0.582306,0.36402 1.128472,0.7369 1.635895,1.11641 a 1.6520298,1.6520298 0 0 1 1.01317,-0.34841 1.6520298,1.6520298 0 0 1 1.180939,0.49701 c 0.80786,-0.32967 1.697077,-0.62064 2.668408,-0.8712 a 7.6500973,7.6108306 0 0 0 -3.675123,-0.93247 z m -3.971958,1.11316 a 7.6500973,7.6108306 0 0 0 -2.445783,2.36838 c 0.535102,0.55946 1.03442,1.09498 1.613309,1.6585 a 1.6520298,1.6520298 0 0 1 0.819555,-0.22291 1.6520298,1.6520298 0 0 1 0.306512,0.0313 c 0.538536,-0.60253 1.183,-1.13652 1.894035,-1.63271 a 1.6520298,1.6520298 0 0 1 -0.04183,-0.35841 1.6520298,1.6520298 0 0 1 0.04496,-0.37088 c -0.636659,-0.47891 -1.319147,-0.95288 -2.103762,-1.40999 a 0.55615228,0.55615228 0 0 1 -0.08711,-0.0643 z m 8.921604,0.69376 c -1.295439,0.27848 -2.485975,0.59754 -3.48152,0.99704 a 1.6520298,1.6520298 0 0 1 0.0093,0.15484 1.6520298,1.6520298 0 0 1 -0.245198,0.85828 c 1.247462,1.33701 2.126114,2.72565 2.690993,4.13009 a 1.6520298,1.6520298 0 0 1 1.293884,0.75182 c 0.761125,-0.16858 1.561829,-0.23601 2.381234,-0.24226 a 7.6500973,7.6108306 0 0 0 0.05182,-0.84861 7.6500973,7.6108306 0 0 0 -2.700671,-5.80144 z M 14.8031,276.5569 c -0.558017,0.39711 -1.064371,0.82156 -1.497148,1.28418 a 1.6520298,1.6520298 0 0 1 0.36458,1.03573 1.6520298,1.6520298 0 0 1 -0.119386,0.61627 c 0.241327,0.17109 0.485775,0.33905 0.738883,0.4939 1.167009,0.71392 2.475965,1.22261 3.962292,1.43909 a 1.6520298,1.6520298 0 0 1 0.603411,-0.8551 c -0.520741,-1.26463 -1.324942,-2.52315 -2.48128,-3.74934 a 1.6520298,1.6520298 0 0 1 -0.545279,0.0968 1.6520298,1.6520298 0 0 1 -1.026077,-0.36151 z m -5.775644,0.25162 a 7.6500973,7.6108306 0 0 0 -0.6743585,3.10721 7.6500973,7.6108306 0 0 0 0.9937963,3.73322 c 0.3223093,-1.38046 0.7355692,-2.66777 1.3132282,-3.8365 a 1.6520298,1.6520298 0 0 1 -0.29365,-0.93569 1.6520298,1.6520298 0 0 1 0.109709,-0.57757 c -0.5369749,-0.52075 -0.9614599,-0.98235 -1.4487453,-1.49067 z m 3.807419,3.50408 a 1.6520298,1.6520298 0 0 1 -0.816351,0.21604 1.6520298,1.6520298 0 0 1 -0.45493,-0.0643 c -0.613899,1.29705 -1.040481,2.76467 -1.355181,4.4108 a 7.6500973,7.6108306 0 0 0 2.991087,2.11345 c 0.992623,-1.75629 2.5112,-3.38382 4.42047,-4.53664 -1.459736,-0.27973 -2.765501,-0.81195 -3.917112,-1.51651 -0.309198,-0.1892 -0.579059,-0.4146 -0.867964,-0.62251 z m 10.480061,1.84238 c -0.670688,0.16547 -1.32516,0.29346 -1.952103,0.36777 a 1.6520298,1.6520298 0 0 1 -0.667916,0.78729 c 0.110644,0.87159 0.117884,1.72269 0.07743,2.55868 a 7.6500973,7.6108306 0 0 0 2.542588,-3.71386 z m -4.581805,0.97767 c -1.90864,1.02206 -3.442714,2.55156 -4.439832,4.19464 a 7.6500973,7.6108306 0 0 0 1.710102,0.19981 7.6500973,7.6108306 0 0 0 3.610593,-0.90668 c 0.103145,-1.00133 0.115258,-2.03513 -0.0093,-3.08467 a 1.6520298,1.6520298 0 0 1 -0.871179,-0.40335 z"
       id="path4269"
       inkscape:connector-curvature="0" />
    <g
       id="g4556"
       style="opacity:0.288">
      <path
         id="circle4508"
         transform="matrix(0.26458333,0,0,0.26458333,0,263.13332)"
         d="M 96.484375 66.160156 A 27.597516 27.597516 0 0 0 68.886719 93.757812 A 27.597516 27.597516 0 0 0 75.882812 112.07031 L 113.14453 106.02344 C 115.59758 105.6253 117.25165 103.33001 116.85352 100.87695 L 111.99414 70.935547 A 27.597516 27.597516 0 0 0 96.484375 66.160156 z "
         style="opacity:1;fill:#000000;fill-opacity:0.07984793;stroke:none;stroke-width:2.74407077;stroke-linecap:round;stroke-linejoin:round;stroke-miterlimit:4;stroke-dasharray:none;stroke-dashoffset:0;stroke-opacity:0.03831416;paint-order:fill markers stroke" />
      <path
         id="circle4510"
         transform="matrix(0.26458333,0,0,0.26458333,0,263.13332)"
         d="M 96.294922 65.78125 A 27.787662 27.787662 0 0 0 68.505859 93.568359 A 27.787662 27.787662 0 0 0 75.642578 112.10938 L 113.14453 106.02344 C 115.59758 105.6253 117.25165 103.33001 116.85352 100.87695 L 111.94141 70.607422 A 27.787662 27.787662 0 0 0 96.294922 65.78125 z "
         style="opacity:1;fill:#000000;fill-opacity:0.07984793;stroke:none;stroke-width:2.7629776;stroke-linecap:round;stroke-linejoin:round;stroke-miterlimit:4;stroke-dasharray:none;stroke-dashoffset:0;stroke-opacity:0.03831416;paint-order:fill markers stroke" />
      <path
         id="circle4512"
         transform="matrix(0.26458333,0,0,0.26458333,0,263.13332)"
         d="M 96.056641 65.304688 A 28.025344 28.025344 0 0 0 68.03125 93.330078 A 28.025344 28.025344 0 0 0 75.341797 112.16016 L 113.14453 106.02344 C 115.59758 105.6253 117.25165 103.33001 116.85352 100.87695 L 111.87305 70.197266 A 28.025344 28.025344 0 0 0 96.056641 65.304688 z "
         style="opacity:1;fill:#000000;fill-opacity:0.07984793;stroke:none;stroke-width:2.7866106;stroke-linecap:round;stroke-linejoin:round;stroke-miterlimit:4;stroke-dasharray:none;stroke-dashoffset:0;stroke-opacity:0.03831416;paint-order:fill markers stroke" />
      <path
         id="circle4514"
         transform="matrix(0.26458333,0,0,0.26458333,0,263.13332)"
         d="M 95.914062 65.019531 A 28.167954 28.167954 0 0 0 67.746094 93.1875 A 28.167954 28.167954 0 0 0 75.160156 112.18945 L 113.14453 106.02344 C 115.59758 105.6253 117.25165 103.33001 116.85352 100.87695 L 111.83398 69.951172 A 28.167954 28.167954 0 0 0 95.914062 65.019531 z "
         style="opacity:1;fill:#000000;fill-opacity:0.07984793;stroke:none;stroke-width:2.80079055;stroke-linecap:round;stroke-linejoin:round;stroke-miterlimit:4;stroke-dasharray:none;stroke-dashoffset:0;stroke-opacity:0.03831416;paint-order:fill markers stroke" />
      <path
         id="circle4516"
         transform="matrix(0.26458333,0,0,0.26458333,0,263.13332)"
         d="M 95.675781 64.544922 A 28.405636 28.405636 0 0 0 67.269531 92.951172 A 28.405636 28.405636 0 0 0 74.857422 112.23828 L 113.14453 106.02344 C 115.59758 105.6253 117.25165 103.33001 116.85352 100.87695 L 111.76758 69.546875 A 28.405636 28.405636 0 0 0 95.675781 64.544922 z "
         style="opacity:1;fill:#000000;fill-opacity:0.07984793;stroke:none;stroke-width:2.82442379;stroke-linecap:round;stroke-linejoin:round;stroke-miterlimit:4;stroke-dasharray:none;stroke-dashoffset:0;stroke-opacity:0.03831416;paint-order:fill markers stroke" />
      <path
         id="circle4518"
         transform="matrix(0.26458333,0,0,0.26458333,0,263.13332)"
         d="M 95.4375 64.070312 A 28.643318 28.643318 0 0 0 66.794922 92.712891 A 28.643318 28.643318 0 0 0 74.556641 112.28711 L 113.14453 106.02344 C 115.59758 105.6253 117.25165 103.33001 116.85352 100.87695 L 111.70312 69.142578 A 28.643318 28.643318 0 0 0 95.4375 64.070312 z "
         style="opacity:1;fill:#000000;fill-opacity:0.07984793;stroke:none;stroke-width:2.84805679;stroke-linecap:round;stroke-linejoin:round;stroke-miterlimit:4;stroke-dasharray:none;stroke-dashoffset:0;stroke-opacity:0.03831416;paint-order:fill markers stroke" />
      <path
         id="circle4520"
         transform="matrix(0.26458333,0,0,0.26458333,0,263.13332)"
         d="M 95.201172 63.59375 A 28.881 28.881 0 0 0 66.320312 92.474609 A 28.881 28.881 0 0 0 74.253906 112.33594 L 113.14453 106.02344 C 115.59758 105.6253 117.25165 103.33001 116.85352 100.87695 L 111.63672 68.736328 A 28.881 28.881 0 0 0 95.201172 63.59375 z "
         style="opacity:1;fill:#000000;fill-opacity:0.07984793;stroke:none;stroke-width:2.87169003;stroke-linecap:round;stroke-linejoin:round;stroke-miterlimit:4;stroke-dasharray:none;stroke-dashoffset:0;stroke-opacity:0.03831416;paint-order:fill markers stroke" />
      <path
         id="circle4522"
         transform="matrix(0.26458333,0,0,0.26458333,0,263.13332)"
         d="M 95.009766 63.212891 A 29.071147 29.071147 0 0 0 65.939453 92.285156 A 29.071147 29.071147 0 0 0 74.011719 112.375 L 113.14453 106.02344 C 115.59758 105.6253 117.25165 103.33001 116.85352 100.87695 L 111.58398 68.412109 A 29.071147 29.071147 0 0 0 95.009766 63.212891 z "
         style="opacity:1;fill:#000000;fill-opacity:0.07984793;stroke:none;stroke-width:2.89059663;stroke-linecap:round;stroke-linejoin:round;stroke-miterlimit:4;stroke-dasharray:none;stroke-dashoffset:0;stroke-opacity:0.03831416;paint-order:fill markers stroke" />
    </g>
    <circle
       style="opacity:1;fill:url(#linearGradient1615);fill-opacity:1;stroke:none;stroke-width:0.72103304;stroke-linecap:round;stroke-linejoin:round;stroke-miterlimit:4;stroke-dasharray:none;stroke-dashoffset:0;stroke-opacity:0.03831416;paint-order:fill markers stroke"
       id="path1600"
       cx="25.578423"
       cy="287.9906"
       r="7.251533" />
    <path
       id="path4537-7"
       d="m 27.181439,290.98666 c -0.170859,0 -0.341272,-0.0733 -0.465222,-0.21743 -0.317818,-0.37058 -0.770477,-0.58239 -1.2424,-0.58239 -0.479873,0 -0.920812,0.20579 -1.241565,0.57931 -0.232799,0.27187 -0.62978,0.29276 -0.887308,0.0459 -0.25711,-0.24618 -0.276798,-0.66552 -0.04352,-0.9366 0.553572,-0.64519 1.345408,-1.01529 2.172416,-1.01529 0.825751,0 1.617591,0.37099 2.172837,1.01751 0.233245,0.27153 0.213557,0.69073 -0.04352,0.93702 -0.119772,0.11539 -0.270909,0.17189 -0.421668,0.17189 z M 28.575,289.32707 c -0.160382,0 -0.320763,-0.0647 -0.443028,-0.19311 -0.711019,-0.74689 -1.654854,-1.15815 -2.658155,-1.15815 -1.005389,0 -1.949646,0.41037 -2.659415,1.15547 -0.245811,0.25818 -0.6436,0.25681 -0.888137,-0.003 -0.244544,-0.25954 -0.243722,-0.67967 0.0026,-0.93791 0.946349,-0.9941 2.205499,-1.54153 3.545046,-1.54153 1.337458,0 2.596184,0.54832 3.544207,1.54417 0.246221,0.25817 0.247077,0.67836 0.0026,0.93838 -0.122683,0.12943 -0.284331,0.19552 -0.445538,0.19552 z m 1.390633,-1.65695 c -0.156204,0 -0.312785,-0.0616 -0.434649,-0.18456 -1.096681,-1.10996 -2.537144,-1.72108 -4.057167,-1.72108 -1.522954,0 -2.964256,0.61026 -4.058002,1.7193 -0.249988,0.25338 -0.647788,0.24516 -0.888144,-0.0205 -0.240366,-0.26434 -0.231978,-0.68453 0.01781,-0.93791 1.329079,-1.34698 3.078992,-2.08855 4.928142,-2.08855 1.845385,0 3.594876,0.74246 4.926465,2.08985 0.250399,0.25338 0.258788,0.67351 0.01883,0.93794 -0.123539,0.13559 -0.288508,0.20442 -0.453495,0.20442 z m -4.570538,4.92138 c 0.419046,0 0.758754,-0.34035 0.758754,-0.7602 0,-0.41982 -0.339698,-0.76017 -0.758754,-0.76017 -0.419049,0 -0.758757,0.34035 -0.758757,0.76017 0,0.41985 0.339698,0.7602 0.758757,0.7602 z"
       inkscape:connector-curvature="0"
       style="fill:#3a3a3a;fill-opacity:1;stroke:none;stroke-width:0.0479199;stroke-opacity:1" />
  </g>
</svg>

<svg width="128" height="128" version="1.1" viewBox="0 0 33.867 33.867" xmlns="http://www.w3.org/2000/svg">
<defs>
<linearGradient id="linearGradient948" x1="122.34" x2="84.091" y1="117.04" y2="71.02" gradientTransform="matrix(.26458 0 0 .26458 -.75005 260.85)" gradientUnits="userSpaceOnUse"/>
<linearGradient id="linearGradient872" x1="36.952" x2="67.633" y1="28.276" y2="108.05" gradientTransform="matrix(.25321 0 0 .25321 -.094183 263.44)" gradientUnits="userSpaceOnUse"/>
<filter id="a" x="-.015688" y="-.015513" width="1.0314" height="1.031" color-interpolation-filters="sRGB">
<feGaussianBlur stdDeviation=".7986332"/>
</filter>
<linearGradient id="linearGradient1615" x1="21.771" x2="30.878" y1="281.85" y2="291.66" gradientTransform="matrix(.95701 0 0 .95701 .62362 13.803)" gradientUnits="userSpaceOnUse"/>
</defs>
<g transform="translate(0 -263.13)">
<rect transform="matrix(.24271 -.039392 .039392 .24271 -37.675 277.01)" x="159.55" y="-8.1697" width="107.46" height="109.13" rx="4.827" fill="#5d5d5d" filter="url(#a)"/>
<rect transform="rotate(-9.2188)" x="-42.336" y="265.39" width="26.423" height="26.833" rx="1.1869" fill="#fff" stroke-width=".24588"/>
<path d="m2.3222 270.33 23.167-4.0814 4.024 22.994-23.109 4.2539z" fill="url(#linearGradient872)" stroke-width=".24588"/>
<path d="m16.003 272.31a7.6501 7.6108 0 0 0-2.8233 0.53885c0.58231 0.36402 1.1285 0.7369 1.6359 1.1164a1.652 1.652 0 0 1 1.0132-0.34841 1.652 1.652 0 0 1 1.1809 0.49701c0.80786-0.32967 1.6971-0.62064 2.6684-0.8712a7.6501 7.6108 0 0 0-3.6751-0.93247zm-3.972 1.1132a7.6501 7.6108 0 0 0-2.4458 2.3684c0.5351 0.55946 1.0344 1.095 1.6133 1.6585a1.652 1.652 0 0 1 0.81956-0.22291 1.652 1.652 0 0 1 0.30651 0.0313c0.53854-0.60253 1.183-1.1365 1.894-1.6327a1.652 1.652 0 0 1-0.04183-0.35841 1.652 1.652 0 0 1 0.04496-0.37088c-0.63666-0.47891-1.3191-0.95288-2.1038-1.41a0.55615 0.55615 0 0 1-0.08711-0.0643zm8.9216 0.69376c-1.2954 0.27848-2.486 0.59754-3.4815 0.99704a1.652 1.652 0 0 1 0.0093 0.15484 1.652 1.652 0 0 1-0.2452 0.85828c1.2475 1.337 2.1261 2.7256 2.691 4.1301a1.652 1.652 0 0 1 1.2939 0.75182c0.76112-0.16858 1.5618-0.23601 2.3812-0.24226a7.6501 7.6108 0 0 0 0.05182-0.84861 7.6501 7.6108 0 0 0-2.7007-5.8014zm-6.1499 2.4426c-0.55802 0.39711-1.0644 0.82156-1.4971 1.2842a1.652 1.652 0 0 1 0.36458 1.0357 1.652 1.652 0 0 1-0.11939 0.61627c0.24133 0.17109 0.48578 0.33905 0.73888 0.4939 1.167 0.71392 2.476 1.2226 3.9623 1.4391a1.652 1.652 0 0 1 0.60341-0.8551c-0.52074-1.2646-1.3249-2.5232-2.4813-3.7493a1.652 1.652 0 0 1-0.54528 0.0968 1.652 1.652 0 0 1-1.0261-0.36151zm-5.7756 0.25162a7.6501 7.6108 0 0 0-0.67436 3.1072 7.6501 7.6108 0 0 0 0.9938 3.7332c0.32231-1.3805 0.73557-2.6678 1.3132-3.8365a1.652 1.652 0 0 1-0.29365-0.93569 1.652 1.652 0 0 1 0.10971-0.57757c-0.53697-0.52075-0.96146-0.98235-1.4487-1.4907zm3.8074 3.5041a1.652 1.652 0 0 1-0.81635 0.21604 1.652 1.652 0 0 1-0.45493-0.0643c-0.6139 1.297-1.0405 2.7647-1.3552 4.4108a7.6501 7.6108 0 0 0 2.9911 2.1134c0.99262-1.7563 2.5112-3.3838 4.4205-4.5366-1.4597-0.27973-2.7655-0.81195-3.9171-1.5165-0.3092-0.1892-0.57906-0.4146-0.86796-0.62251zm10.48 1.8424c-0.67069 0.16547-1.3252 0.29346-1.9521 0.36777a1.652 1.652 0 0 1-0.66792 0.78729c0.11064 0.87159 0.11788 1.7227 0.07743 2.5587a7.6501 7.6108 0 0 0 2.5426-3.7139zm-4.5818 0.97767c-1.9086 1.0221-3.4427 2.5516-4.4398 4.1946a7.6501 7.6108 0 0 0 1.7101 0.19981 7.6501 7.6108 0 0 0 3.6106-0.90668c0.10314-1.0013 0.11526-2.0351-0.0093-3.0847a1.652 1.652 0 0 1-0.87118-0.40335z" fill="#fff" style="paint-order:fill markers stroke"/>
<g fill-opacity=".079848" opacity=".288">
<path transform="matrix(.26458 0 0 .26458 0 263.13)" d="m96.484 66.16a27.598 27.598 0 0 0-27.598 27.598 27.598 27.598 0 0 0 6.9961 18.312l37.262-6.0469c2.453-0.39814 4.1071-2.6934 3.709-5.1465l-4.8594-29.941a27.598 27.598 0 0 0-15.51-4.7754z" opacity="1" style="paint-order:fill markers stroke"/>
<path transform="matrix(.26458 0 0 .26458 0 263.13)" d="m96.295 65.781a27.788 27.788 0 0 0-27.789 27.787 27.788 27.788 0 0 0 7.1367 18.541l37.502-6.0859c2.453-0.39814 4.1071-2.6934 3.709-5.1465l-4.9121-30.27a27.788 27.788 0 0 0-15.646-4.8262z" opacity="1" style="paint-order:fill markers stroke"/>
<path transform="matrix(.26458 0 0 .26458 0 263.13)" d="m96.057 65.305a28.025 28.025 0 0 0-28.025 28.025 28.025 28.025 0 0 0 7.3105 18.83l37.803-6.1367c2.453-0.39814 4.1071-2.6934 3.709-5.1465l-4.9805-30.68a28.025 28.025 0 0 0-15.816-4.8926z" opacity="1" style="paint-order:fill markers stroke"/>
<path transform="matrix(.26458 0 0 .26458 0 263.13)" d="m95.914 65.02a28.168 28.168 0 0 0-28.168 28.168 28.168 28.168 0 0 0 7.4141 19.002l37.984-6.166c2.453-0.39814 4.1071-2.6934 3.709-5.1465l-5.0195-30.926a28.168 28.168 0 0 0-15.92-4.9316z" opacity="1" style="paint-order:fill markers stroke"/>
<path transform="matrix(.26458 0 0 .26458 0 263.13)" d="m95.676 64.545a28.406 28.406 0 0 0-28.406 28.406 28.406 28.406 0 0 0 7.5879 19.287l38.287-6.2148c2.453-0.39814 4.1071-2.6934 3.709-5.1465l-5.0859-31.33a28.406 28.406 0 0 0-16.092-5.002z" opacity="1" style="paint-order:fill markers stroke"/>
<path transform="matrix(.26458 0 0 .26458 0 263.13)" d="m95.438 64.07a28.643 28.643 0 0 0-28.643 28.643 28.643 28.643 0 0 0 7.7617 19.574l38.588-6.2637c2.453-0.39814 4.1071-2.6934 3.709-5.1465l-5.1504-31.734a28.643 28.643 0 0 0-16.266-5.0723z" opacity="1" style="paint-order:fill markers stroke"/>
<path transform="matrix(.26458 0 0 .26458 0 263.13)" d="m95.201 63.594a28.881 28.881 0 0 0-28.881 28.881 28.881 28.881 0 0 0 7.9336 19.861l38.891-6.3125c2.453-0.39814 4.1071-2.6934 3.709-5.1465l-5.2168-32.141a28.881 28.881 0 0 0-16.436-5.1426z" opacity="1" style="paint-order:fill markers stroke"/>
<path transform="matrix(.26458 0 0 .26458 0 263.13)" d="m95.01 63.213a29.071 29.071 0 0 0-29.07 29.072 29.071 29.071 0 0 0 8.0723 20.09l39.133-6.3516c2.453-0.39814 4.1071-2.6934 3.709-5.1465l-5.2695-32.465a29.071 29.071 0 0 0-16.574-5.1992z" opacity="1" style="paint-order:fill markers stroke"/>
</g>
<circle cx="25.578" cy="287.99" r="7.2515" fill="url(#linearGradient1615)" style="paint-order:fill markers stroke"/>
<path d="m27.181 290.99c-0.17086 0-0.34127-0.0733-0.46522-0.21743-0.31782-0.37058-0.77048-0.58239-1.2424-0.58239-0.47987 0-0.92081 0.20579-1.2416 0.57931-0.2328 0.27187-0.62978 0.29276-0.88731 0.0459-0.25711-0.24618-0.2768-0.66552-0.04352-0.9366 0.55357-0.64519 1.3454-1.0153 2.1724-1.0153 0.82575 0 1.6176 0.37099 2.1728 1.0175 0.23324 0.27153 0.21356 0.69073-0.04352 0.93702-0.11977 0.11539-0.27091 0.17189-0.42167 0.17189zm1.3936-1.6596c-0.16038 0-0.32076-0.0647-0.44303-0.19311-0.71102-0.74689-1.6549-1.1582-2.6582-1.1582-1.0054 0-1.9496 0.41037-2.6594 1.1555-0.24581 0.25818-0.6436 0.25681-0.88814-3e-3 -0.24454-0.25954-0.24372-0.67967 0.0026-0.93791 0.94635-0.9941 2.2055-1.5415 3.545-1.5415 1.3375 0 2.5962 0.54832 3.5442 1.5442 0.24622 0.25817 0.24708 0.67836 0.0026 0.93838-0.12268 0.12943-0.28433 0.19552-0.44554 0.19552zm1.3906-1.657c-0.1562 0-0.31278-0.0616-0.43465-0.18456-1.0967-1.11-2.5371-1.7211-4.0572-1.7211-1.523 0-2.9643 0.61026-4.058 1.7193-0.24999 0.25338-0.64779 0.24516-0.88814-0.0205-0.24037-0.26434-0.23198-0.68453 0.01781-0.93791 1.3291-1.347 3.079-2.0886 4.9281-2.0886 1.8454 0 3.5949 0.74246 4.9265 2.0898 0.2504 0.25338 0.25879 0.67351 0.01883 0.93794-0.12354 0.13559-0.28851 0.20442-0.4535 0.20442zm-4.5705 4.9214c0.41905 0 0.75875-0.34035 0.75875-0.7602 0-0.41982-0.3397-0.76017-0.75875-0.76017-0.41905 0-0.75876 0.34035-0.75876 0.76017 0 0.41985 0.3397 0.7602 0.75876 0.7602z" fill="#3a3a3a"/>
</g>
</svg>
